X: 53
T:Bedd y Morwr
M:6/8
L:1/8
Q:130
C:Trad
S:Blodau'r Grug Collection Vol. 1
R:Jig
A:Wales
Z:brian_martin12345@yahoo.com
K:G
D|G2G BdB|e2fg2e|d2d BGB|A2G ABA|G2A BdB|!e2f gfe|d2e BGA|G3-G2:||
d|g2g aga|b2gd2B|!g2g feg|e2^de2f/g/|d2d dBd|e2f gfe|d2e BGA|G3G2:||

